X: 3
T: An Phis Fhliuch
R: slip jig
M: 9/8
L: 1/8
K: Gmaj
|:A|(3DE/F/G/A AFA c2A|BAG F3 GED|(3DE/F/G/A AFA d2A|dg/f/e dcA GED:|
|:dB/c/d ege d2A|dB/c/d fef g3|a3 ged c2A|BAG F3 GED:|
|:(3DE/F/G/A AFd AFd|AFd AFd GED|(3DE/F/G/A AFA c2A|BAG F3 GED:|
|:D3 D3 c3|c2B c2A GED|D3 D3 d2A|dg/f/e dcA GED:|
|:dB/c/d ege c2A|dB/c/d fef g3|a3 ged c2A|BAG FG/A/F GED:||


Tune 879	Setting 879

